X:1
T:Bettendorf, 11.11.11.11.10.11
T:Bettendorf, 11.11.11.11.10.11
T:Philip Phillips, 1890
T:Public Domain Courtesy of the Cyber Hymnal™
C:Philip Phillips, 1890
Z:Public Domain
Z:Courtesy of the Cyber Hymnal™
%%score ( 1 2 ) ( 3 4 )
L:1/8
Q:1/4=95
M:4/4
K:Bb
V:1 treble 
V:2 treble 
V:3 bass 
V:4 bass 
V:1
 [B,D]>[CE] [DF]>[EG] [DF]2 [DB]2 | [Fd]>[Ec] [DB]>[EG] [DF]4 | F>[FG] [FA]>[FB] [Fc]2 [FA]2 | %3
 [FB]>[EA] [DB]>[Fc] [Fd]2 z2 | [B,D]>[CE] [DF]>[EG] [DF]2 [DB]2 | [Fd]>[Ec] [DB]>[EG] [DF]4 | %6
 F>[=EG] [_EA]>[DB] [Fc]2 [Fe]2 | [Fd]>[Gc] [FB]>[FA] [FB]4 | [Fc]>[Fc] [Fc]>[Fc] [Fc]2 z2 | %9
 [Fd]>[Fd] [Fd]>[Fd] [Fd]2 z2 | [Ge]>[Ge] [Ge]>[Ge] [Fd]2 [Ec]2 | [DB]>[DB] [EA]>[EA] [DB]4 |] %12
V:2
 x8 | x8 | F3/2 x13/2 | x8 | x8 | x8 | F3/2 x13/2 | x8 | x8 | x8 | x8 | x8 |] %12
V:3
 [B,,F,]>[B,,F,] [B,,B,]>[B,,B,] [B,,B,]2 [B,,B,]2 | [B,,B,]>[B,,F,] [B,,F,]>[B,,B,] [B,,B,]4 | %2
 [F,A,]>[F,B,] [F,C]>[F,D] [F,E]2 [F,C]2 | [F,D]>[F,C] [F,B,]>[F,A,] [B,,B,]2 z2 | %4
 [B,,F,]>[B,,F,] [B,,B,]>[B,,B,] [B,,B,]2 [B,,B,]2 | [B,,B,]>[B,,F,] [B,,F,]>[B,,B,] [B,,B,]4 | %6
 [F,A,]>[F,B,] [F,C]>[F,B,] [F,A,]2 [A,C]2 | B,>[E,E] [F,D]>[F,C] [B,,D]4 | %8
 [F,A,]>[F,A,] [F,A,]>[F,A,] [F,A,]2 z2 | [B,,B,]>[B,,B,] [B,,B,]>[B,,B,] [B,,B,]2 z2 | %10
 [E,B,]>[E,B,] [E,B,]>[E,B,] [F,B,]2 [F,A,]2 | [F,B,]>[F,B,] [F,C]>[F,C] [B,,B,]4 |] %12
V:4
 x8 | x8 | x8 | x8 | x8 | x8 | x8 | B,3/2 x13/2 | x8 | x8 | x8 | x8 |] %12

